src/assets/img/icons/scale.svg

<svg enable-background="new 0 0 512 512" height="512" viewBox="0 0 512 512" width="512" xmlns="http://www.w3.org/2000/svg"><path d="m256 212c-57.891 0-105 47.109-105 105s47.109 105 105 105 105-47.109 105-105-47.109-105-105-105zm0 150c-24.814 0-45-20.186-45-45 0-19.53 12.578-36.024 30-42.237v-32.763h30v32.763c17.422 6.213 30 22.707 30 42.237 0 24.814-20.186 45-45 45z"/><path d="m256 302c-8.276 0-15 6.724-15 15s6.724 15 15 15 15-6.724 15-15-6.724-15-15-15z"/><path d="m482 287c0-90.981-75.019-167-166-167h-120c-90.981 0-166 76.019-166 167v195h-30v30h512v-30h-30zm-361 165h-30v-30h30zm135 0c-74.443 0-135-60.557-135-135s60.557-135 135-135 135 60.557 135 135-60.557 135-135 135zm165 0h-30v-30h30z"/><path d="m0 15c0 24.853 20.147 45 45 45h136v30h150v-30h136c24.853 0 45-20.147 45-45v-15h-512z"/></svg>

<?xml version="1.0" encoding="iso-8859-1"?>
<!-- Generator: Adobe Illustrator 19.0.0, SVG Export Plug-In . SVG Version: 6.00 Build 0)  -->
<svg xmlns="http://www.w3.org/2000/svg" version="1.1" id="Layer_1" x="0px"
     y="0px" viewBox="0 0 512 512" style="enable-background:new 0 0 512 512;" xml:space="preserve" width="512"
     height="512">
<g>
	<path d="M256,212c-57.891,0-105,47.109-105,105s47.109,105,105,105s105-47.109,105-105S313.891,212,256,212z M256,362   c-24.814,0-45-20.186-45-45c0-19.53,12.578-36.024,30-42.237V242h30v32.763c17.422,6.213,30,22.707,30,42.237   C301,341.814,280.814,362,256,362z"/>
    <path d="M256,302c-8.276,0-15,6.724-15,15s6.724,15,15,15s15-6.724,15-15S264.276,302,256,302z"/>
    <path d="M482,287c0-90.981-75.019-167-166-167H196c-90.981,0-166,76.019-166,167v195H0v30h512v-30h-30V287z M121,452H91v-30h30V452   z M256,452c-74.443,0-135-60.557-135-135s60.557-135,135-135s135,60.557,135,135S330.443,452,256,452z M421,452h-30v-30h30V452z"/>
    <path d="M0,15c0,24.853,20.147,45,45,45h136v30h150V60h136c24.853,0,45-20.147,45-45V0H0V15z"/>
</g>















</svg>
